X:1
T: South Wind
I:
H: from Robin C.
C: W-11
C: Irish
M: 3/4
Z:
R: waltz
K: G
dc| "G"B3 A G2| B3 c d2| "D7"A4 AB| A4 dc|\
    "G"B3 A G2| "C"E2 D2 E2| "G"G4 G2| G4:|
\
d2| "G"g4 g2| "C"g3 f e2| "G"d4 d2| d4 c2| B3 A G2| B3 c d2| "D7"A4 AB| A4 d2|
    "C"g4 g2| g3 f e2| "G"d4 BA| B4 dc| B3 A G2| "D7"A c3 F2| "G"G6| G4|]
%
